!!!COM: Palestrina, Giovanni Perluigi da
!!!OPR: In festis Apostolorum (II)
!!!OTL: Credo
**kern	**kern	**kern	**kern	**kern
*Ibass	*Itenor	*Itenor	*Icalto	*Icant
!Bassus	!Tenor 2	!Tenor 1	!Altus	!Cantus
*clefF4	*clefGv2	*clefGv2	*clefG2	*clefG2
*k[]	*k[]	*k[]	*k[]	*k[]
*D:dor	*D:dor	*D:dor	*D:dor	*D:dor
*M4/2	*M4/2	*M4/2	*M4/2	*M4/2
=1	=1	=1	=1	=1
0r	0r	0r	1e	1r
.	.	.	2c	1e
.	.	.	2A	.
=2	=2	=2	=2	=2
0r	0r	0r	2e	2g
.	.	.	2c	2a
.	.	.	2d	1b
.	.	.	2e	.
=3	=3	=3	=3	=3
0r	0r	1r	4A	1cc
.	.	.	4B	.
.	.	.	4c	.
.	.	.	4d	.
.	.	1E	4e	2b
.	.	.	4f	.
.	.	.	[2g	[2cc
=4	=4	=4	=4	=4
1r	0r	2G	4g]	2cc]
.	.	.	4f	.
.	.	2A	4e	1a
.	.	.	4d	.
1E	.	1B	[1e	.
.	.	.	.	2g#
=5	=5	=5	=5	=5
2C	2r	1c	0e]	1a
2AA	2E	.	.	.
2E	2G	2B	.	2r
2C	2A	[2A	.	2cc
=6	=6	=6	=6	=6
2D	1B	2A]	2r	2b
2E	.	2G#	2e	2b
4AA	1c	2A	1e	1a
4BB	.	.	.	.
4C	.	2E	.	.
4D	.	.	.	.
=7	=7	=7	=7	=7
4E	2B	2.G	2e	2g
4F	.	.	.	.
1G	1B	.	4d	1g
.	.	4A	4c	.
.	.	4B	1d	.
.	.	4c	.	.
2D	[2A	4d	.	2f
.	.	4c	.	.
=8	=8	=8	=8	=8
1E	2A]	4B	1r	2e
.	.	4A	.	.
.	2G#	2B	.	2b
1AA	1A	1A	1e	1cc
=9	=9	=9	=9	=9
0r	0r	0r	2f	1.dd
.	.	.	2g	.
.	.	.	2f	.
.	.	.	[2e	2cc
=10	=10	=10	=10	=10
0r	2r	0r	4e]	1b
.	.	.	4d	.
.	2B	.	1g	.
.	2c	.	.	[1a
.	[2d	.	4f	.
.	.	.	4e	.
=11	=11	=11	=11	=11
1r	2d]	1r	2f	2a]
.	2c	.	1e	2a
[1E	2B	2r	.	1g
.	[2G	2B	2e	.
=12	=12	=12	=12	=12
2E]	2G]	2c	2e	0r
2F	2A	1d	4d	.
.	.	.	4c	.
[1G	2.B	.	4B	.
.	.	.	4A	.
.	.	2e	2G	.
.	4c	.	.	.
=13	=13	=13	=13	=13
2G]	2B	2d	0r	0r
2F	2.A	2.d	.	.
2E	.	.	.	.
.	4G	4c	.	.
[2E	[2G	[2c	.	.
=14	=14	=14	=14	=14
2E]	2G]	2c]	1r	1r
2D	2F	2B	.	.
1C	1G	1c	1e	2r
.	.	.	.	2g
=15	=15	=15	=15	=15
0r	0r	2r	1f	2a
.	.	2F	.	2.cc
.	.	2A	1e	.
.	.	.	.	4b
.	.	2c	.	4g
.	.	.	.	4a
=16	=16	=16	=16	=16
0r	0r	2G	2d	4b
.	.	.	.	4a
.	.	1c	1e	4g
.	.	.	.	4f
.	.	.	.	2g
.	.	2d	[2d	2f
=17	=17	=17	=17	=17
1r	1r	1A	2d]	2e
.	.	.	2c#	2e
1G	1B	2r	2d	[1g
.	.	2G	2d	.
=18	=18	=18	=18	=18
2.C	1c	2G	2e	0g]
.	.	2.G	2.g	.
4D	.	.	.	.
4E	1B	.	.	.
4F	.	4A	4f	.
2G	.	4B	4d	.
.	.	4c	4e	.
=19	=19	=19	=19	=19
2D	2A	1d	4f	0r
.	.	.	4e	.
2G	1B	.	4d	.
.	.	.	4c	.
2G	.	2B	2d	.
2A	[2A	[2e	2c	.
=20	=20	=20	=20	=20
1E	2A]	2e]	2B	1b
.	2G#	2e	2B	.
2r	1A	1e	2A	1cc
[2A	.	.	[2e	.
=21	=21	=21	=21	=21
2A]	1E	2r	2e]	1b
2G#	.	2B	2e	.
2A	2A	2c	1e	2a
2E	[2G	2B	.	[2b
=22	=22	=22	=22	=22
2.C	2G]	2E	1e	2b]
.	2c	1e	.	1a
4D	.	.	.	.
2E	2B	.	2.e	.
2E	2B	2B	.	2g#
.	.	.	4e	.
=23	=23	=23	=23	=23
[0AA	[0A	[0c#	[0e	[0a
=24	=24	=24	=24	=24
0AA]	0A]	0c#]	0e]	0a]
!! Et ex Patre
*Ibass	*Itenor	*Itenor	*Icalto	*Icant
!Bassus	!Tenor 2	!Tenor 1	!Altus	!Cantus
*clefF4	*clefGv2	*clefGv2	*clefG2	*clefG2
*k[]	*k[]	*k[]	*k[]	*k[]
*D:dor	*D:dor	*D:dor	*D:dor	*D:dor
*M4/2	*M4/2	*M4/2	*M4/2	*M4/2
=25	=25	=25	=25	=25
1E	0r	0r	0r	0r
1F	.	.	.	.
=26	=26	=26	=26	=26
1G	1B	0r	0r	0r
2E	1c	.	.	.
[2F	.	.	.	.
=27	=27	=27	=27	=27
4F]	1.d	0r	0r	0r
4E	.	.	.	.
4D	.	.	.	.
4E	.	.	.	.
4F	.	.	.	.
4G	.	.	.	.
[2A	2c	.	.	.
=28	=28	=28	=28	=28
2A]	1B	2r	1r	0r
2G#	.	2B	.	.
1A	[1A	1c	1e	.
=29	=29	=29	=29	=29
1D	1A]	2.d	1f	1r
.	.	4c	.	.
1E	1r	4B	1g	1b
.	.	4A	.	.
.	.	2G	.	.
=30	=30	=30	=30	=30
1AA	0r	1A	2e	1cc
.	.	.	2.f	.
1r	.	2F	.	[1dd
.	.	.	4e	.
.	.	2G	4d	.
.	.	.	4e	.
=31	=31	=31	=31	=31
1r	0r	1A	4f	2dd]
.	.	.	4g	.
.	.	.	1a	2cc
1E	.	2r	.	1b
.	.	[2e	2g#	.
=32	=32	=32	=32	=32
2AA	1A	2e]	1a	2a
1A	.	2A	.	1cc
.	2E	2.e	1r	.
2G#	[2e	.	.	2b
.	.	4d	.	.
=33	=33	=33	=33	=33
1A	2e]	1c	0r	2a
.	2c	.	.	2e
2G	1d	2B	.	2g
2F	.	2A	.	[2a
=34	=34	=34	=34	=34
1E	2c	2.e	1r	2a]
.	2B	.	.	2g#
.	.	4d	.	.
2r	1A	[1c	1e	1a
[2A	.	.	.	.
=35	=35	=35	=35	=35
2A]	0r	2c]	2A	1e
2G	.	2B	1e	.
2F	.	2c	.	2A
2F	.	4B	2d	[2a
.	.	4A	.	.
=36	=36	=36	=36	=36
1E	0r	1B	1e	2a]
.	.	.	.	2g#
1F	.	1A	2d	1a
.	.	.	2c	.
=37	=37	=37	=37	=37
2G	1r	0r	4B	2g
.	.	.	4c#	.
2D	.	.	2.d	2f
1A	2r	.	.	1e
.	.	.	8c#	.
.	.	.	8B	.
.	2A	.	2c#	.
=38	=38	=38	=38	=38
1r	2D	1r	2d	2.f
.	1d	.	1f	.
.	.	.	.	4g
2r	.	1A	.	[1a
[2A	2c#	.	2e	.
=39	=39	=39	=39	=39
2A]	1d	2D	2f	1a]
2D	.	1A	2f	.
2E	2c	.	[1e	2r
2E	2B	2G#	.	2b
=40	=40	=40	=40	=40
1AA	2A	1A	0e]	2cc
.	2.c	.	.	1cc
1C	.	[1G	.	.
.	4B	.	.	.
.	4G	.	.	2cc
.	4A	.	.	.
=41	=41	=41	=41	=41
1GG	4B	1G]	2.d	1b
.	4c	.	.	.
.	1d	.	.	.
.	.	.	4e	.
1D	.	1F	2f	2.a
.	2d	.	2d	.
.	.	.	.	4a
=42	=42	=42	=42	=42
[0AA	[0c#	[0E	[0e	[0a
=43	=43	=43	=43	=43
0AA]	0c#]	0E]	0e]	0a]
*	*	*	*	*-
!! Genitum
*Ibass	*Itenor	*Itenor	*Icalto
!Bassus	!Tenor 2	!Tenor 1	!Altus
*clefF4	*clefGv2	*clefGv2	*clefG2
*k[]	*k[]	*k[]	*k[]
*D:dor	*D:dor	*D:dor	*D:dor
*M4/2	*M4/2	*M4/2	*M4/2
=44	=44	=44	=44
1.D	1r	0r	0r
.	[1A	.	.
2C	.	.	.
=45	=45	=45	=45
2D	2A]	0r	0r
2E	2G	.	.
2F	2A	.	.
4E	2B	.	.
4D	.	.	.
=46	=46	=46	=46
4C	2c	0r	0r
4D	.	.	.
4E	4B	.	.
4C	4A	.	.
2.D	4B	.	.
.	4A	.	.
.	[2A	.	.
4C	.	.	.
=47	=47	=47	=47
1BB	2A]	1r	1.d
.	2G#	.	.
1AA	2.A	2r	.
.	.	[2A	2c
.	4G	.	.
=48	=48	=48	=48
0r	2F	2A]	2d
.	2E	2G	2e
.	1D	2A	2f
.	.	2B	4e
.	.	.	4d
=49	=49	=49	=49
0r	4C	2c	1e
.	4D	.	.
.	4E	4B	.
.	4F	4A	.
.	2G	2B	2d
.	2A	[2A	2c
=50	=50	=50	=50
0r	1E	2A]	1B
.	.	2G#	.
.	2r	1A	1c
.	[2A	.	.
=51	=51	=51	=51
1.D	2A]	1.F	1d
.	2B	.	.
.	2A	.	1r
2E	2G	2G	.
=52	=52	=52	=52
2D	2F	1A	0r
2C	2E	.	.
2BB	2D	2G	.
2AA	4E	[2c	.
.	4F	.	.
=53	=53	=53	=53
2GG	1G	2c]	0r
2.G	.	2B	.
.	2D	1A	.
8F#	.	.	.
8E	.	.	.
2F#	[2d	.	.
=54	=54	=54	=54
1G	2d]	2B	0r
.	2e	1G	.
1r	2d	.	.
.	2c	2A	.
=55	=55	=55	=55
0r	2B	2G	1d
.	2A	2F	.
.	4G	2E	1e
.	8A	.	.
.	8B	.	.
.	2c	2C	.
=56	=56	=56	=56
0r	2B	1D	2.d
.	2A	.	.
.	.	.	4c
.	2G	[1E	2B
.	2c	.	2A
=57	=57	=57	=57
0r	2B	0E]	2G
.	1A	.	2A
.	.	.	1B
.	2G#	.	.
=58	=58	=58	=58
1AA	2A	2r	2r
.	1c	1A	1e
1C	.	.	.
.	2c	2G	2e
=59	=59	=59	=59
2.D	2.A	2.F	2.d
4D	4A	4F	4d
1AA	1A	2E	1c
.	.	[2c	.
=60	=60	=60	=60
1C	2G	4c]	1e
.	.	4B	.
.	2C	1A	.
1BB	1D	.	1d
.	.	2G#	.
=61	=61	=61	=61
2AA	1E	2A	2c
1C	.	2E	1e
.	1r	1G	.
2BB	.	.	2d
=62	=62	=62	=62
1AA	1E	2.A	2.c
.	.	4A	4c
2GG	1G	1D	2B
2BB	.	.	[2d
=63	=63	=63	=63
2AA	2.A	2r	2d]
2AA	.	2E	2c
.	4A	.	.
1GG	1D	1G	2.B
.	.	.	4B
=64	=64	=64	=64
0D	0F	2.A	2A
.	.	.	2.f
.	.	4A	.
.	.	4D	.
.	.	4E	4e
.	.	4F	[2d
.	.	4G	.
=65	=65	=65	=65
0AA	0E	2A	2d]
.	.	1A	4c#
.	.	.	4B
.	.	.	2c#
.	.	2A	2c#
=66	=66	=66	=66
[0D	[0D	[0A	[0d
=67	=67	=67	=67
0D]	0D]	0A]	0d]
*-	*-	*-	*-
!! Et incarnatus
**kern	**kern	**kern	**kern	**kern
*Ibass	*Itenor	*Itenor	*Icalto	*Icant
!Bassus	!Tenor 2	!Tenor 1	!Altus	!Cantus
*clefF4	*clefGv2	*clefGv2	*clefG2	*clefG2
*k[]	*k[]	*k[]	*k[]	*k[]
*D:dor	*D:dor	*D:dor	*D:dor	*D:dor
*M4/2	*M4/2	*M4/2	*M4/2	*M4/2
=68	=68	=68	=68	=68
0r	0D	0d	0f	0a
=69	=69	=69	=69	=69
0r	1A	1c#	1e	1a
.	1D	1d	1f	1a
=70	=70	=70	=70	=70
0r	1E	1c	1e	1a
.	1E	1B	1e	1g#
=71	=71	=71	=71	=71
0D	1F	1A	0d	[0a
.	1A	1F	.	.
=72	=72	=72	=72	=72
1C#	1.A	1E	0r	0a]
1D	.	1F	.	.
.	2A	.	.	.
=73	=73	=73	=73	=73
1C	1A	1E	1r	0r
1BB	1G#	2D	1d	.
.	.	[2d	.	.
=74	=74	=74	=74	=74
0AA	0A	4d]	1f	1a
.	.	4c	.	.
.	.	2.c	.	.
.	.	.	1e	1cc
.	.	8B	.	.
.	.	8A	.	.
.	.	2c	.	.
=75	=75	=75	=75	=75
0r	2r	1G	2d	1b
.	2G	.	2.g	.
.	1d	1r	.	1a
.	.	.	4f	.
.	.	.	4f	.
.	.	.	8e	.
.	.	.	8d	.
=76	=76	=76	=76	=76
1r	2A	1r	1e	1cc
.	2A	.	.	.
1GG	1B	2r	[1d	[1dd
.	.	2D	.	.
=77	=77	=77	=77	=77
1D	2A	1F	1d]	1dd]
.	2A	.	.	.
2AA	1c	1E	1r	1r
2C	.	.	.	.
=78	=78	=78	=78	=78
4GG	1B	1D	0r	0r
4AA	.	.	.	.
4BB	.	.	.	.
4C	.	.	.	.
4D	1A	1F	.	.
4E	.	.	.	.
4F	.	.	.	.
4D	.	.	.	.
=79	=79	=79	=79	=79
1E	1c	1G	1g	0r
1D	1d	[1A	1f	.
=80	=80	=80	=80	=80
1AA	0r	2A]	1e	1cc
.	.	2E	.	.
1r	.	1G	1d	1b
=81	=81	=81	=81	=81
0r	2r	2A	1c	1a
.	2A	2F	.	.
.	1c	2C	1e	1g
.	.	2C	.	.
=82	=82	=82	=82	=82
1r	1A	1D	1d	1f
1F	2A	1r	1c	1a
.	[2c	.	.	.
=83	=83	=83	=83	=83
1E	2c]	2r	1r	1g
.	1B	1G	.	.
1D	.	.	2r	1r
.	[2A	[2F	2A	.
=84	=84	=84	=84	=84
1C	2A]	2F]	1c	0r
.	2G	2E	.	.
1BB-	2B-	2F	2d	.
.	2B-	[2G	2d	.
=85	=85	=85	=85	=85
1D	2A	4G]	2d	0r
.	.	4F	.	.
.	4G	1F	2B	.
.	4F	.	.	.
1C	1G	.	1c	.
.	.	2E	.	.
=86	=86	=86	=86	=86
1r	0F	1F	2.c	0a
.	.	.	4B	.
[1F	.	2r	4A	.
.	.	.	4G	.
.	.	2A	2F	.
=87	=87	=87	=87	=87
2F]	1C	1c	0G	0g
4E	.	.	.	.
4D	.	.	.	.
1E	1C	2c	.	.
.	.	[2c	.	.
=88	=88	=88	=88	=88
0F	2.c	4c]	1F	0a
.	.	4B	.	.
.	.	4A	.	.
.	4B	4G	.	.
.	4A	4F	[1f	.
.	4G	4G	.	.
.	2F	4A	.	.
.	.	4B	.	.
=89	=89	=89	=89	=89
0C	1.G	0c	2f]	0g
.	.	.	4e	.
.	.	.	4d	.
.	.	.	1e	.
.	2E	.	.	.
=90	=90	=90	=90	=90
0D	2.F	1A	0d	0f
.	4G	.	.	.
.	[1A	2.F	.	.
.	.	4G	.	.
=91	=91	=91	=91	=91
0AA	2A]	2.A	2.c	[0e
.	4G	.	.	.
.	4F	4B	4B	.
.	2E	1c	2A	.
.	[2A	.	2E	.
=92	=92	=92	=92	=92
0E	2A]	2.B	2E	0e]
.	4G#	.	2.e	.
.	4F#	4A	.	.
.	1G#	1B	.	.
.	.	.	4d	.
.	.	.	2B	.
=93	=93	=93	=93	=93
[0AA	[0A	[0A	[0c#	[0e
=94	=94	=94	=94	=94
0AA]	0A]	0A]	0c#]	0e]
!! Et resurrexit
*Ibass	*Itenor	*Itenor	*Icalto	*Icant
!Bassus	!Tenor 2	!Tenor 1	!Altus	!Cantus
*clefF4	*clefGv2	*clefGv2	*clefG2	*clefG2
*k[]	*k[]	*k[]	*k[]	*k[]
*D:dor	*D:dor	*D:dor	*D:dor	*D:dor
*M4/2	*M4/2	*M4/2	*M4/2	*M4/2
=95	=95	=95	=95	=95
1D	0r	2r	0r	0r
.	.	2d	.	.
2E	.	2c	.	.
2F	.	2A	.	.
=96	=96	=96	=96	=96
1E	2r	1c	1r	1r
.	2G	.	.	.
1D	2A	1d	2r	1dd
.	2B-	.	2d	.
=97	=97	=97	=97	=97
0r	1A	1r	2e	2cc
.	.	.	2f	2a
.	1A	2r	1e	1cc
.	.	[2A	.	.
=98	=98	=98	=98	=98
1D	1F	2A]	1d	1dd
.	.	2.B	.	.
1E	1G	.	1r	1r
.	.	8A	.	.
.	.	8B	.	.
.	.	[2c	.	.
=99	=99	=99	=99	=99
1.F	1.A	2c]	0r	0r
.	.	2B	.	.
.	.	2A	.	.
2E	2G	[2B	.	.
=100	=100	=100	=100	=100
2D	2F	2B]	1r	1a
2C	2E	2.A	.	.
1BB	1D	.	1d	1b
.	.	4G#	.	.
.	.	4G#	.	.
.	.	4F#	.	.
=101	=101	=101	=101	=101
1AA	2r	1A	1e	1.cc
.	1A	.	.	.
1r	.	1r	[1f	.
.	2G	.	.	2b
=102	=102	=102	=102	=102
0r	2F	0r	2f]	2a
.	1G	.	2e	1b
.	.	.	2d	.
.	2A	.	2c	[2a
=103	=103	=103	=103	=103
0r	2D	1d	1B	2a]
.	1d	.	.	2g#
.	.	1e	1A	2a
.	2c	.	.	2e
=104	=104	=104	=104	=104
1D	2B	1d	0r	1f
.	1A	.	.	.
1E	.	2c	.	1e
.	2G	[2B	.	.
=105	=105	=105	=105	=105
2D	2F	4B]	0r	0r
.	.	4A	.	.
2C	2E	1A	.	.
1BB	1D	.	.	.
.	.	2G#	.	.
=106	=106	=106	=106	=106
1AA	2E	1A	2r	1r
.	2A	.	2c	.
1r	2B	1r	2d	1g
.	2c	.	2e	.
=107	=107	=107	=107	=107
0r	4F	0r	2f	1a
.	4G	.	.	.
.	4A	.	4e	.
.	4B	.	4d	.
.	2c	.	2e	2g
.	2d	.	[2d	2f
=108	=108	=108	=108	=108
1r	1A	2r	2d]	1e
.	.	1A	2c#	.
1D	1r	.	2.d	2d
.	.	[2d	.	2f
.	.	.	4c	.
=109	=109	=109	=109	=109
1E	1G	2d]	2B	1g
.	.	2c	2e	.
2D	1A	2d	4A	2f
.	.	.	4B	.
2AA	.	[2c	4c	[2e
.	.	.	4d	.
=110	=110	=110	=110	=110
2C	2G	4c]	2e	2e]
.	.	4B	.	.
2D	2F	4A	1d	2.a
.	.	4G	.	.
1AA	1E	1A	.	.
.	.	.	.	4g
.	.	.	2c#	2e
=111	=111	=111	=111	=111
[0D	[0D	[0A	[0d	[0f#
=112	=112	=112	=112	=112
0D]	0D]	0A]	0d]	0f#]
!! Et iterum
*Ibass	*Itenor	*Itenor	*Icalto	*Icant
!Bassus	!Tenor 2	!Tenor 1	!Altus	!Cantus
*clefF4	*clefGv2	*clefGv2	*clefG2	*clefG2
*k[]	*k[]	*k[]	*k[]	*k[]
*D:dor	*D:dor	*D:dor	*D:dor	*D:dor
*M4/2	*M4/2	*M4/2	*M4/2	*M4/2
=113	=113	=113	=113	=113
0r	0r	1r	0r	1a
.	.	2r	.	2g
.	.	2d	.	2f
=114	=114	=114	=114	=114
0r	0r	2c	1g	2e
.	.	2B	.	2d
.	.	2A	2f	2c
.	.	2G	2e	2g
=115	=115	=115	=115	=115
0r	0r	1F	2d	1a
.	.	.	2c	.
.	.	1G	4B	1g
.	.	.	4c	.
.	.	.	[2d	.
=116	=116	=116	=116	=116
0r	0r	1A	2d]	2.e
.	.	.	2c#	.
.	.	.	.	4f
.	.	1G	2d	4g
.	.	.	.	4f
.	.	.	[2e	4e
.	.	.	.	4d
=117	=117	=117	=117	=117
1r	0r	2A	2e]	2c
.	.	2B-	1d	2d
2r	.	1A	.	1e
2A	.	.	2c	.
=118	=118	=118	=118	=118
2G	1d	2r	2B	0r
2F	.	2A	2A	.
2E	2c	2G	1r	.
2D	2B	2F	.	.
=119	=119	=119	=119	=119
1C	2A	2E	1e	0r
.	2G	2c	.	.
1D	1F	2A	2.d	.
.	.	2A	.	.
.	.	.	4c	.
=120	=120	=120	=120	=120
1E	1G	4G	2B	1r
.	.	4A	.	.
.	.	4B	2e	.
.	.	4c	.	.
1D	[1A	1d	2f	2r
.	.	.	2f	2a
=121	=121	=121	=121	=121
1E	2A]	0r	1e	2cc
.	2G	.	.	2.b
1F	1A	.	2c	.
.	.	.	.	4a
.	.	.	[2d	[2a
=122	=122	=122	=122	=122
1G	1B-	1r	2d]	2a]
.	.	.	2e	2g
1D	[1A	2r	1f	1a
.	.	[2d	.	.
=123	=123	=123	=123	=123
0r	1A]	4d]	1.e	1a
.	.	4c	.	.
.	.	1c	.	.
.	1r	.	.	1g
.	.	2B	2d	.
=124	=124	=124	=124	=124
0r	0r	2A	2e	1a
.	.	2F	2.f	.
.	.	1c	.	1g
.	.	.	8e	.
.	.	.	8d	.
.	.	.	2e	.
=125	=125	=125	=125	=125
0r	2r	2d	1a	1f
.	2.d	2D	.	.
.	.	2E	[1g	1e
.	4c	.	.	.
.	[2c	2D	.	.
=126	=126	=126	=126	=126
0r	2c]	1G	2g]	1d
.	2B	.	2d	.
.	2A	2r	2e	1c
.	2F	[2c	2f	.
=127	=127	=127	=127	=127
0r	2c	2c]	2.g	1e
.	4C	2c	.	.
.	4D	.	4f	.
.	4E	2c	2e	1g
.	4F	.	.	.
.	2G	2B	2d	.
=128	=128	=128	=128	=128
0r	4F	2c	1f	1a
.	4G	.	.	.
.	4A	1c	.	.
.	4B	.	.	.
.	2c	.	2e	1g
.	[2d	2B	2d	.
=129	=129	=129	=129	=129
1r	2d]	2A	1e	0a
.	2c#	2A	.	.
2r	2d	2D	1f#	.
[2D	[2A	[2d	.	.
=130	=130	=130	=130	=130
2D]	2A]	2d]	0r	0r
2E	2G	2c	.	.
2F	2A	2d	.	.
2G	2B	2e	.	.
=131	=131	=131	=131	=131
1A	1c	2f	0r	0r
.	.	1e	.	.
2G	2B	.	.	.
2F	2A	[2d	.	.
=132	=132	=132	=132	=132
1E	1G	2d]	1r	1r
.	.	2c#	.	.
1D	1A	2d	2r	1d
.	.	2D	[2d	.
=133	=133	=133	=133	=133
0r	0r	1A	2d]	1e
.	.	.	2c	.
.	.	2D	2d	2f
.	.	2C	2e	2g
=134	=134	=134	=134	=134
0r	0r	4F	1f	1a
.	.	4G	.	.
.	.	4A	.	.
.	.	4B	.	.
.	.	2c	2e	2g
.	.	2d	[2d	2f
=135	=135	=135	=135	=135
1r	1r	2G	2d]	1e
.	.	1A	2c#	.
2.D	2r	.	2d	2d
.	[2A	2D	2f	[2a
4E	.	.	.	.
=136	=136	=136	=136	=136
2F	2A]	0r	2c	2a]
2E	2B	.	1e	2g
2A	2c	.	.	2a
2G	2d	.	2g	2b
=137	=137	=137	=137	=137
1C	1e	1r	1g	1cc
2GG	2d	2r	2g	2b
2AA	2c	2A	2e	2a
=138	=138	=138	=138	=138
0E	2B	2B	0e	2g#
.	2A	2c	.	1a
.	1B	2B	.	.
.	.	2E	.	2g#
=139	=139	=139	=139	=139
[0AA	[0A	[0E	[0c#	[0a
=140	=140	=140	=140	=140
0AA]	0A]	0E]	0c#]	0a]
!! Qui cum Patre
*Ibass	*Itenor	*Itenor	*Icalto	*Icant
!Bassus	!Tenor 2	!Tenor 1	!Altus	!Cantus
*clefF4	*clefGv2	*clefGv2	*clefG2	*clefG2
*k[]	*k[]	*k[]	*k[]	*k[]
*D:dor	*D:dor	*D:dor	*D:dor	*D:dor
*M3/2	*M3/2	*M3/2	*M3/2	*M3/2
=141	=141	=141	=141	=141
1AA	1c	1A	1e	1r
2D	2A	2F	2d	2r
=142	=142	=142	=142	=142
1C	1c	1G	1e	1r
2AA	2c	2A	2e	2r
=143	=143	=143	=143	=143
2GG#	2B	2B	2e	1r
2AA	2A	2c	2e	.
2E	2G#	2B	2e	2r
=144	=144	=144	=144	=144
2AA	2A	2A	2e	1a
2r	2d	2r	2f	.
2r	2B	2r	2d	2g
=145	=145	=145	=145	=145
1AA	1c	1A	1e	1a
2E	2B	2G#	2e	2b
=146	=146	=146	=146	=146
1AA	2A	1A	1.e	1cc
.	2E	.	.	.
2E	2G	2B	.	2b
=147	=147	=147	=147	=147
2.A	2A	1c	1.e	1a
.	2r	.	.	.
8G#	.	.	.	.
8F#	.	.	.	.
2G#	2r	2B	.	2r
=148	=148	=148	=148	=148
2A	2r	1.A	2r	1r
1D	2d	.	2f	.
.	2c	.	2e	2r
=149	=149	=149	=149	=149
1r	2B-	1r	2d	2dd
.	2A	.	2.e	2cc
2r	2G	2r	.	2b-
.	.	.	8d	.
.	.	.	8e	.
=150	=150	=150	=150	=150
1r	2F	1r	2f	2a
.	2c	.	2e	2g
2r	[2d	2r	4d	[2f
.	.	.	4e	.
=151	=151	=151	=151	=151
1r	2d]	1r	2.f	2f]
.	1c	.	.	1g
.	.	.	8e	.
.	.	.	8d	.
2r	.	2r	2e	.
=152	=152	=152	=152	=152
2D	2A	2d	2f	1f
2F	2A	2c	2f	.
2G	2G	2B-	2d	2r
=153	=153	=153	=153	=153
2D	2F	2A	2d	1r
2E	2G	2G	2c	.
[2F	[2A	[2F	2c	2r
=154	=154	=154	=154	=154
2F]	4A]	2F]	2.f	1r
.	4B	.	.	.
1C	1c	1G	.	.
.	.	.	8e	.
.	.	.	8d	.
.	.	.	2e	2r
=155	=155	=155	=155	=155
1D	2A	2F	2f	1d
.	2r	2A	2f	.
2AA	2r	2A	2e	2c
=156	=156	=156	=156	=156
1D	1r	1A	1f	1d
2C	2r	2A	2e	2e
=157	=157	=157	=157	=157
2BB-	1r	2D	2d	2g
2AA	.	2E	2c	2a
2GG	2r	2G	2B-	2d
=158	=158	=158	=158	=158
2D	1r	1.A	2.d	2f
1AA	.	.	.	1e
.	.	.	4c#	.
.	2r	.	2c#	.
=159	=159	=159	=159	=159
2r	1D	2F	2d	1d
2GG	.	2G	2r	.
2AA	2C	2F	[2A	2r
=160	=160	=160	=160	=160
1BB-	1D	2F	2A]	1d
.	.	2D	2G	.
2AA	2E	2r	2A	2c
=161	=161	=161	=161	=161
2GG	1G	2r	2B	2d
2C	.	2r	1c	2e
2FF	2A	2F	.	2f
=162	=162	=162	=162	=162
2BB-	1D	2F	1d	2f
2GG	.	2B-	.	2g
[2D	[2F	4A	2d	[2a
.	.	4G	.	.
=163	=163	=163	=163	=163
2D]	2F]	4F	2.d	1.a]
.	.	4G	.	.
1AA	1E	1A	.	.
.	.	.	8c#	.
.	.	.	8B	.
.	.	.	2c#	.
=164	=164	=164	=164	=164
[1.D	[1.D	[1.A	[1.d	[1.f#
=165	=165	=165	=165	=165
2D_	2D_	2A_	2d_	2f#_
1D_	1D_	1A_	1d_	1f#_
=166	=166	=166	=166	=166
1D]	1D]	1A]	1d]	1f#]
!! Confiteor
*Ibass	*Itenor	*Itenor	*Icalto	*Icant
!Bassus	!Tenor 2	!Tenor 1	!Altus	!Cantus
*clefF4	*clefGv2	*clefGv2	*clefG2	*clefG2
*k[]	*k[]	*k[]	*k[]	*k[]
*D:dor	*D:dor	*D:dor	*D:dor	*D:dor
*M4/2	*M4/2	*M4/2	*M4/2	*M4/2
=167	=167	=167	=167	=167
1r	0d	0r	0r	0r
[1G	.	.	.	.
=168	=168	=168	=168	=168
1G]	2.e	0r	0r	0r
.	4e	.	.	.
2.A	2e	.	.	.
.	2A	.	.	.
4A	.	.	.	.
=169	=169	=169	=169	=169
2A	2c	0r	0r	0r
2D	2d	.	.	.
2F	2c	.	.	.
[2G	[2B	.	.	.
=170	=170	=170	=170	=170
4G]	4B]	1r	0d	1r
8F#	8A	.	.	.
8E	8G	.	.	.
2F#	2A	.	.	.
2.G	[1B	[1G	.	[1b
4F	.	.	.	.
=171	=171	=171	=171	=171
4E	1B]	1G]	2.e	1b]
4D	.	.	.	.
2E	.	.	.	.
.	.	.	4e	.
1AA	1r	2.A	2e	2.cc
.	.	.	2A	.
.	.	4A	.	4cc
=172	=172	=172	=172	=172
0r	2r	2A	2e	2cc
.	2A	2D	2.f	2dd
.	2A	2F	.	2cc
.	.	.	4c	.
.	2B	2G	[2e	[2b
=173	=173	=173	=173	=173
0r	2.c	1F	2e]	4b]
.	.	.	.	4a
.	.	.	2d	1a
.	8B	.	.	.
.	8A	.	.	.
.	1B	1E	1e	.
.	.	.	.	2g#
=174	=174	=174	=174	=174
2r	0A	1r	2r	0a
1D	.	.	1f	.
.	.	2r	.	.
2C	.	[2A	2e	.
=175	=175	=175	=175	=175
2D	1r	2A]	2f	0r
2E	.	2G	2e	.
1F	2r	1A	2c	.
.	[2A	.	2d	.
=176	=176	=176	=176	=176
1E	2A]	1B	1e	0r
.	2G	.	.	.
2.D	2A	1d	[1f	.
.	2B	.	.	.
4E	.	.	.	.
=177	=177	=177	=177	=177
4F	1A	1c	2f]	0r
4G	.	.	.	.
1A	.	.	2e	.
.	1E	1B	1e	.
2G	.	.	.	.
=178	=178	=178	=178	=178
1F	1r	1.c	4A	2r
.	.	.	4B	.
.	.	.	4c	1a
.	.	.	4d	.
2.E	2r	.	[1e	.
.	[2E	[2B	.	2g
4D	.	.	.	.
=179	=179	=179	=179	=179
2C	2E]	2B]	2e]	1a
2D	2F	1A	4d	.
.	.	.	4c	.
1BB	1D	.	1d	2b
.	.	2G#	.	[2dd
=180	=180	=180	=180	=180
2AA	2.E	1A	1r	2dd]
2AA	.	.	.	2cc
.	4F	.	.	.
1GG	2.G	1r	2r	2b
.	.	.	[2d	[2b
.	4F	.	.	.
=181	=181	=181	=181	=181
2AA	1E	1r	2d]	2b]
2AA	.	.	2c	1a
1BB-	1D	2r	1d	.
.	.	[2d	.	2g
=182	=182	=182	=182	=182
1AA	2r	2d]	1e	1a
.	1A	2c	.	.
2r	.	2d	1g	1b
2E	2G	2e	.	.
=183	=183	=183	=183	=183
2F	1A	1c	1f	1a
2.A	.	.	.	.
.	1B	2B	1e	1b
8G#	.	.	.	.
8F#	.	.	.	.
2G#	.	2E	.	.
=184	=184	=184	=184	=184
2A	1d	4D	1.f	2a
.	.	4E	.	.
2D	.	4F	.	2b
.	.	4G	.	.
2.AA	2c	1A	.	[1cc
.	[2C	.	[2e	.
4BB	.	.	.	.
=185	=185	=185	=185	=185
2C	2C]	2.G	2e]	2cc]
2GG	2D	.	1d	2b-
.	.	4F	.	.
1AA	1A	4E	.	1a
.	.	4D	.	.
.	.	2E	2c#	.
=186	=186	=186	=186	=186
[0D	[0F#	[0D	[0d	[0a
=187	=187	=187	=187	=187
0D]	0F#]	0D]	0d]	0a]
!! Et vitam
*Ibass	*Itenor	*Itenor	*Icalto	*Icant
!Bassus	!Tenor 2	!Tenor 1	!Altus	!Cantus
*clefF4	*clefGv2	*clefGv2	*clefG2	*clefG2
*k[]	*k[]	*k[]	*k[]	*k[]
*D:dor	*D:dor	*D:dor	*D:dor	*D:dor
*M4/2	*M4/2	*M4/2	*M4/2	*M4/2
=188	=188	=188	=188	=188
2r	1A	0r	0r	0r
2AA	.	.	.	.
2BB	1G	.	.	.
2C	.	.	.	.
=189	=189	=189	=189	=189
1D	1F	2r	0r	1a
.	.	2A	.	.
1r	1E	2B	.	1g
.	.	2c	.	.
=190	=190	=190	=190	=190
2r	0r	1d	2r	1f
2F	.	.	2A	.
2G	.	1r	2B	1e
2A	.	.	2c	.
=191	=191	=191	=191	=191
1D	2r	2r	1d	1f
.	2F	2A	.	.
2r	2G	2B	1r	1e
2AA	2A	2c	.	.
=192	=192	=192	=192	=192
2BB	2D	2d	1r	2d
2C	2.G	2c	.	1e
1D	.	1A	1a	.
.	8F	.	.	.
.	8E	.	.	.
.	2F	.	.	[2d
=193	=193	=193	=193	=193
2.E	1G	1r	1g	2d]
.	.	.	.	2c#
4E	.	.	.	.
1D	1r	2r	1f	2d
.	.	2F	.	2a
=194	=194	=194	=194	=194
1r	1r	2G	1e	2b
.	.	2A	.	2cc
2r	2r	1D	1f	1dd
2F	2A	.	.	.
=195	=195	=195	=195	=195
2G	2B	1r	1e	2r
2A	2c	.	.	2a
2D	2d	1A	2d	2a
2C#	[2A	.	[2e	2a
=196	=196	=196	=196	=196
1D	4A]	2.F	2e]	1.a
.	4G	.	.	.
.	2F	.	1d	.
.	.	4G	.	.
1AA	2E	2A	.	.
.	2E	2A	2c#	2e
=197	=197	=197	=197	=197
[0D	[0D	[0A	[0d	[0f#
=198	=198	=198	=198	=198
0D]	0D]	0A]	0d]	0f#]
=199	=199	=199	=199	=199
2r	0r	0r	1c	0r
2A	.	.	.	.
2G	.	.	1d	.
2F	.	.	.	.
=200	=200	=200	=200	=200
4E	0r	1r	1e	1r
4F	.	.	.	.
4G	.	.	.	.
4E	.	.	.	.
2F	.	2r	1A	1f
2D	.	2d	.	.
=201	=201	=201	=201	=201
1E	0r	2c	0r	1g
.	.	2B	.	.
1F	.	4A	.	1a
.	.	4B	.	.
.	.	4c	.	.
.	.	4A	.	.
=202	=202	=202	=202	=202
1G	1r	2B-	1r	0d
.	.	2G	.	.
1D	1F	1A	2r	.
.	.	.	2f	.
=203	=203	=203	=203	=203
2C	1G	1r	2e	0r
2BB	.	.	2d	.
4AA	1A	2r	4c	.
4BB	.	.	4d	.
4C	.	2A	4e	.
4AA	.	.	4c	.
=204	=204	=204	=204	=204
2BB-	1D	2F	2d	1r
2GG	.	2G	2B-	.
1D	1F	1A	2A	2r
.	.	.	2f	2a
=205	=205	=205	=205	=205
1r	1G	0r	2e	2g
.	.	.	1d	2f
2r	1A	.	.	2.e
2AA	.	.	2c	.
.	.	.	.	4f
=206	=206	=206	=206	=206
2BB	1G	2r	2d	1g
2C	.	2c	2e	.
1D	1F	2A	1d	1r
.	.	2B	.	.
=207	=207	=207	=207	=207
1C	1E	4c	2g	2r
.	.	4A	.	.
.	.	1c	2e	2g
2r	1D	.	2f	2a
2GG	.	2B	2g	2b
=208	=208	=208	=208	=208
1AA	1C	2.A	2f	2cc
.	.	.	2.e	2.a
.	.	4G	.	.
1BB-	1D	2F	.	.
.	.	.	4d	8g
.	.	.	.	8f
.	.	2D	[2d	2g
=209	=209	=209	=209	=209
0AA	0E	0A	2d]	0a
.	.	.	4c#	.
.	.	.	4B	.
.	.	.	1c#	.
=210	=210	=210	=210	=210
[0D	[0D	[0A	[0d	[0f#
=211	=211	=211	=211	=211
0D]	0D]	0A]	0d]	0f#]
==	==	==	==	==
*-	*-	*-	*-	*-
!!!CDT: 1525/^1526/-1594/2/2
!!!OCY: Italia
!!!AGN: Mass (Paraphrase)
!!!AST: renaissance, vocal
!!!ASW: Gregorian Mass
!!!PWK: Masses, Book Mantuan II
!!!RNB: Cadence finals: A
!!!YOR: Le Opere Complete, v. 19, p. 1
!!!YOO: Rome, Italy: Fratelli Scalera
!!!END: 1992//
!!!EED: John Miller
!!!YEC: Copyright 2000, John Miller
!!!YEN: United States of America
!!!YEM: Rights to all derivative electronic formats reserved.
!!!YEM: Refer to licensing agreement for further details.
!!!YEM: This file must be accompanied by the licensing agreement.
!!!YEM: A copy of the licensing agreement may be found at http://www.music-cog.ohio-state.edu/HumdrumDatabases/Palestrina/license.txt
!!!EMD: converted to Humdrum by Bret Aarden
